X:134
T:Jackson's Morning Breeze
R:jig
M:6/8
L:1/8
K:Dmaj
DFA d2f|edB g3|afd Adf|edB AFE|
DFA d2f|edB g3|afd Adf|1 edc d2z :|2 edc d2e||
f2f dfa|bgb a2g|f2f dfa|bgb a2f|
g3 f3|edB g3|afd Adf|1 edc d2e :|2 edc d2z||

